X:1
T:Adagio
T:"La prière"
T:ALBINONI
L:1/8
M:4/4
K:C
V:1 treble nm="Violin"
V:1
!mf! (ec)Ac (eA)(ag) |{fe} f6 f2 | dBGB dGgf |{ed} e6 e2 | cAFA cFfe |{de} d6 d2 | B^GEG BEed | %7
{cB} c6 c2 | dfaf (dABc) | d6 d2- | de(cd) (TB3 A) |!mp! (Ac)Ac (eA)ag |{fe} f6 f2 | GBGB dGgf | %14
{ed} e6 e2 | (ec)Ac (eA)^fe |!<(! ^d^c B2 b4-!<)! | bbag T^f3 e |!>(! e6 e2!>)! |!mp! ae^ce abga | %20
 !turn!f6 f2 | fdBd gafg | !turn!e6 e2 | ecAc fgef | !turn!d6 d2 | dB^GB efde | c6 ^c2 | %27
!<(! (dA)(df) (eA)(eg)!<)! | (fd)(fa) ^fdcf | gdgb ^gedg |!f! a^g (a3 !tenuto!g) (a2- | %31
 a!tenuto!^g) a3!>(! =gfe!>)! |!mf! (fA)(eA) (fA)(eA) | d6 d2- | de(cd) TB3 A | A!mp!ecA (fA)(eA) | %36
 a2 A4 A2- | A!p!ecA (fA)(eA) | a2 A4!<(! A2-!<)! | A!f!afd (bd)(ad) | ^g2 e2 a2 A2 | A4 (T^G3 A) | %42
 A8 |] %43

